X: 4272
T: Bob Wi' Two Horns, The
R: reel
M: 4/4
K: Gminor
|:(3ddd BG (3ddd BG|(3ccc AF f2 =ef|dcBA GBdg|dcBA BG (3GGG:|
DGBGdGBG|cBAG FGAF|DGBG DGBG|dedc BGGF|
DGBG dGBG|cBAG FGAF|GABc dcdg|dcBA BG (3GGG||

